X:1
T:Delijska Rachenitsa
R:rachenitsa
C:Ivan Shibilev
O:Bulgaria
Z:id:hn-rachenitsa-1
M:2+2+3/16
L:1/16
Q:1/8=220
K:Dphr ^f
|: d2^fg a2a | a2a2 ~a2g | abb2 a2g | gag^f edc |
[1 d2^fg a2a | a2a2 ~a2g | abb2 a2g | g2a2 z3 :|
[2 c2de e2e | d2e2 ^f2g | agg^f edc | dAd2 d3 ||
|: c2de e2e | d2e2 ^f2g | agg^f edc | de^fg ~a2d |
   c2de e2e | d2e2 ^f2g | agg^f edc | dAd2 d3 :|
|: d'4-d'3 | c'4-c'3 | bc'ba g^fg | abbd b2d |
   a2b2 c'2d' | c'2b2 a2g | gag^f edc |1 de^fg abc' :|2 dAd2 d3 ||
|: a2b2 c'2d' | c'2b2 a2g | gag^f edc | de^fg ~a2d |
   a2b2 c'2d' | c'2b2 a2g | gag^f edc | dAd2 d3 :|
|: ga^f2 gag | ^fAde ~f2d | gA^f2 edc | de^fg ~a2d |
   ga^f2 gag | ^fAde ~f2d | gA^f2 edc | dAd2 d3 :|

